apps/wow-docs/public/color/color_status.svg

<svg width="274" height="132" viewBox="0 0 274 132" fill="none" xmlns="http://www.w3.org/2000/svg">
<rect width="132" height="100" rx="12" fill="#2A8642"/>
<path d="M40.8125 127.125C40.8125 126.776 40.7318 126.482 40.5703 126.242C40.4141 126.003 40.2109 125.799 39.9609 125.633C39.7109 125.471 39.4349 125.336 39.1328 125.227C38.8359 125.117 38.5495 125.018 38.2734 124.93C37.8724 124.799 37.4635 124.643 37.0469 124.461C36.6354 124.273 36.2604 124.049 35.9219 123.789C35.5781 123.523 35.2969 123.211 35.0781 122.852C34.8646 122.487 34.7578 122.06 34.7578 121.57C34.7578 121.081 34.8646 120.643 35.0781 120.258C35.2969 119.872 35.5807 119.547 35.9297 119.281C36.2786 119.016 36.6745 118.815 37.1172 118.68C37.5599 118.539 38.0052 118.469 38.4531 118.469C38.9479 118.469 39.4245 118.552 39.8828 118.719C40.3411 118.88 40.7474 119.109 41.1016 119.406C41.4557 119.703 41.7396 120.062 41.9531 120.484C42.1667 120.906 42.2786 121.378 42.2891 121.898H40.8047C40.763 121.57 40.6823 121.273 40.5625 121.008C40.4427 120.737 40.2839 120.505 40.0859 120.312C39.888 120.12 39.651 119.971 39.375 119.867C39.1042 119.758 38.7969 119.703 38.4531 119.703C38.1771 119.703 37.9062 119.742 37.6406 119.82C37.3802 119.898 37.1484 120.016 36.9453 120.172C36.737 120.328 36.5703 120.521 36.4453 120.75C36.3255 120.979 36.2656 121.245 36.2656 121.547C36.2708 121.875 36.3542 122.154 36.5156 122.383C36.6771 122.607 36.8828 122.797 37.1328 122.953C37.3776 123.109 37.6432 123.24 37.9297 123.344C38.2214 123.448 38.4948 123.539 38.75 123.617C39.1719 123.747 39.5938 123.906 40.0156 124.094C40.4375 124.276 40.8229 124.51 41.1719 124.797C41.5156 125.062 41.7917 125.388 42 125.773C42.2135 126.159 42.3203 126.604 42.3203 127.109C42.3203 127.62 42.2057 128.065 41.9766 128.445C41.7526 128.826 41.4609 129.141 41.1016 129.391C40.7422 129.646 40.3359 129.839 39.8828 129.969C39.4297 130.094 38.9766 130.156 38.5234 130.156C37.9818 130.156 37.4479 130.065 36.9219 129.883C36.401 129.701 35.9479 129.438 35.5625 129.094C35.2188 128.797 34.9453 128.451 34.7422 128.055C34.5443 127.654 34.4375 127.208 34.4219 126.719H35.8984C35.9453 127.073 36.0417 127.388 36.1875 127.664C36.3333 127.935 36.5208 128.164 36.75 128.352C36.9792 128.544 37.2422 128.69 37.5391 128.789C37.8411 128.883 38.1693 128.93 38.5234 128.93C38.8047 128.93 39.0807 128.896 39.3516 128.828C39.6276 128.755 39.8724 128.643 40.0859 128.492C40.2995 128.346 40.474 128.161 40.6094 127.938C40.7448 127.708 40.8125 127.438 40.8125 127.125ZM49.5591 130L49.4731 128.836C49.1919 129.253 48.8403 129.578 48.4184 129.812C47.9966 130.042 47.5096 130.156 46.9575 130.156C46.5148 130.156 46.1138 130.089 45.7544 129.953C45.395 129.812 45.0877 129.596 44.8325 129.305C44.5773 129.013 44.3794 128.643 44.2388 128.195C44.1033 127.742 44.0356 127.201 44.0356 126.57V121.547H45.4809V126.586C45.4809 127.044 45.5174 127.424 45.5903 127.727C45.6632 128.029 45.7726 128.268 45.9184 128.445C46.0643 128.628 46.2414 128.755 46.4497 128.828C46.6632 128.901 46.908 128.938 47.1841 128.938C47.507 128.938 47.796 128.901 48.0513 128.828C48.3065 128.75 48.5278 128.643 48.7153 128.508C48.8716 128.398 49.007 128.268 49.1216 128.117C49.2414 127.961 49.3403 127.792 49.4184 127.609V121.547H50.8716V130H49.5591ZM56.7197 128.984C56.9801 128.984 57.2327 128.943 57.4775 128.859C57.7275 128.776 57.9489 128.659 58.1416 128.508C58.3343 128.362 58.4879 128.19 58.6025 127.992C58.7223 127.789 58.7848 127.57 58.79 127.336H60.1572C60.152 127.711 60.053 128.07 59.8603 128.414C59.6728 128.753 59.4202 129.049 59.1025 129.305C58.7848 129.565 58.4202 129.773 58.0088 129.93C57.5973 130.081 57.1676 130.156 56.7197 130.156C56.0791 130.156 55.5192 130.042 55.04 129.812C54.5608 129.583 54.1624 129.273 53.8447 128.883C53.5218 128.497 53.2796 128.052 53.1181 127.547C52.9567 127.036 52.8759 126.5 52.8759 125.938V125.609C52.8759 125.052 52.9567 124.518 53.1181 124.008C53.2796 123.497 53.5218 123.047 53.8447 122.656C54.1624 122.271 54.5608 121.964 55.04 121.734C55.5192 121.505 56.0791 121.391 56.7197 121.391C57.2197 121.391 57.678 121.471 58.0947 121.633C58.5166 121.789 58.8811 122.003 59.1884 122.273C59.4905 122.549 59.7275 122.875 59.8994 123.25C60.0713 123.625 60.1572 124.026 60.1572 124.453H58.79C58.7848 124.198 58.7275 123.958 58.6181 123.734C58.514 123.505 58.3707 123.305 58.1884 123.133C58.0061 122.961 57.7874 122.826 57.5322 122.727C57.2822 122.628 57.0114 122.578 56.7197 122.578C56.2718 122.578 55.8942 122.669 55.5869 122.852C55.2848 123.029 55.04 123.26 54.8525 123.547C54.665 123.839 54.5296 124.164 54.4463 124.523C54.3681 124.883 54.3291 125.245 54.3291 125.609V125.938C54.3291 126.307 54.3681 126.674 54.4463 127.039C54.5296 127.398 54.665 127.721 54.8525 128.008C55.0348 128.299 55.277 128.536 55.5791 128.719C55.8864 128.896 56.2666 128.984 56.7197 128.984ZM65.8491 128.984C66.1095 128.984 66.3621 128.943 66.6069 128.859C66.8569 128.776 67.0782 128.659 67.2709 128.508C67.4636 128.362 67.6173 128.19 67.7319 127.992C67.8517 127.789 67.9142 127.57 67.9194 127.336H69.2866C69.2814 127.711 69.1824 128.07 68.9897 128.414C68.8022 128.753 68.5496 129.049 68.2319 129.305C67.9142 129.565 67.5496 129.773 67.1381 129.93C66.7267 130.081 66.297 130.156 65.8491 130.156C65.2084 130.156 64.6485 130.042 64.1694 129.812C63.6902 129.583 63.2918 129.273 62.9741 128.883C62.6511 128.497 62.409 128.052 62.2475 127.547C62.086 127.036 62.0053 126.5 62.0053 125.938V125.609C62.0053 125.052 62.086 124.518 62.2475 124.008C62.409 123.497 62.6511 123.047 62.9741 122.656C63.2918 122.271 63.6902 121.964 64.1694 121.734C64.6485 121.505 65.2084 121.391 65.8491 121.391C66.3491 121.391 66.8074 121.471 67.2241 121.633C67.6459 121.789 68.0105 122.003 68.3178 122.273C68.6199 122.549 68.8569 122.875 69.0287 123.25C69.2006 123.625 69.2866 124.026 69.2866 124.453H67.9194C67.9142 124.198 67.8569 123.958 67.7475 123.734C67.6433 123.505 67.5001 123.305 67.3178 123.133C67.1355 122.961 66.9168 122.826 66.6616 122.727C66.4116 122.628 66.1407 122.578 65.8491 122.578C65.4011 122.578 65.0235 122.669 64.7162 122.852C64.4142 123.029 64.1694 123.26 63.9819 123.547C63.7944 123.839 63.659 124.164 63.5756 124.523C63.4975 124.883 63.4584 125.245 63.4584 125.609V125.938C63.4584 126.307 63.4975 126.674 63.5756 127.039C63.659 127.398 63.7944 127.721 63.9819 128.008C64.1642 128.299 64.4064 128.536 64.7084 128.719C65.0157 128.896 65.3959 128.984 65.8491 128.984ZM75.1113 130.156C74.5175 130.156 73.9706 130.055 73.4706 129.852C72.9758 129.648 72.5514 129.365 72.1972 129C71.843 128.635 71.567 128.203 71.3691 127.703C71.1711 127.203 71.0722 126.659 71.0722 126.07V125.742C71.0722 125.06 71.1816 124.451 71.4003 123.914C71.6191 123.372 71.9107 122.914 72.2753 122.539C72.6347 122.169 73.0435 121.885 73.5019 121.688C73.9654 121.49 74.4394 121.391 74.9238 121.391C75.5331 121.391 76.0644 121.497 76.5175 121.711C76.9758 121.919 77.356 122.208 77.6581 122.578C77.9602 122.953 78.1842 123.393 78.33 123.898C78.481 124.404 78.5566 124.951 78.5566 125.539V126.188H72.5175V126.242C72.554 126.654 72.6347 127.016 72.7597 127.328C72.8899 127.641 73.067 127.917 73.2909 128.156C73.5201 128.411 73.7961 128.612 74.1191 128.758C74.442 128.904 74.7988 128.977 75.1894 128.977C75.705 128.977 76.1633 128.872 76.5644 128.664C76.9654 128.456 77.2988 128.18 77.5644 127.836L78.4472 128.523C78.1659 128.951 77.7441 129.331 77.1816 129.664C76.6243 129.992 75.9342 130.156 75.1113 130.156ZM74.9238 122.578C74.6321 122.578 74.356 122.633 74.0956 122.742C73.8352 122.846 73.6008 123 73.3925 123.203C73.1842 123.411 73.0071 123.667 72.8613 123.969C72.7206 124.266 72.6217 124.609 72.5644 125H77.1113V124.93C77.1113 124.669 77.0618 124.391 76.9628 124.094C76.8639 123.792 76.7258 123.531 76.5488 123.312C76.3717 123.094 76.1477 122.917 75.8769 122.781C75.6113 122.646 75.2935 122.578 74.9238 122.578ZM86.1234 127.758C86.1234 127.586 86.0896 127.432 86.0219 127.297C85.9542 127.156 85.8396 127.029 85.6781 126.914C85.5167 126.799 85.3031 126.695 85.0375 126.602C84.7719 126.503 84.4411 126.414 84.0453 126.336C83.5609 126.237 83.1182 126.117 82.7172 125.977C82.3214 125.836 81.9828 125.667 81.7016 125.469C81.4151 125.276 81.1937 125.049 81.0375 124.789C80.8812 124.523 80.8031 124.216 80.8031 123.867C80.8031 123.523 80.8839 123.203 81.0453 122.906C81.2068 122.604 81.4333 122.341 81.725 122.117C82.0167 121.893 82.363 121.716 82.7641 121.586C83.1703 121.456 83.6156 121.391 84.1 121.391C84.6208 121.391 85.0896 121.458 85.5062 121.594C85.9229 121.729 86.2771 121.917 86.5687 122.156C86.8604 122.396 87.0844 122.677 87.2406 123C87.4021 123.318 87.4828 123.661 87.4828 124.031H86.0375C86.0375 123.849 85.9906 123.672 85.8969 123.5C85.8031 123.323 85.6729 123.167 85.5062 123.031C85.3396 122.896 85.1365 122.786 84.8969 122.703C84.6625 122.62 84.3969 122.578 84.1 122.578C83.7927 122.578 83.5219 122.612 83.2875 122.68C83.0583 122.747 82.8682 122.839 82.7172 122.953C82.5609 123.068 82.4437 123.201 82.3656 123.352C82.2875 123.503 82.2484 123.659 82.2484 123.82C82.2484 123.987 82.2797 124.135 82.3422 124.266C82.4047 124.396 82.5141 124.513 82.6703 124.617C82.8214 124.721 83.0245 124.815 83.2797 124.898C83.5401 124.982 83.8682 125.062 84.2641 125.141C84.7849 125.25 85.251 125.378 85.6625 125.523C86.074 125.664 86.4203 125.833 86.7016 126.031C86.9828 126.234 87.1964 126.469 87.3422 126.734C87.4932 127 87.5687 127.307 87.5687 127.656C87.5687 128.031 87.4828 128.372 87.3109 128.68C87.1443 128.987 86.9099 129.25 86.6078 129.469C86.3057 129.688 85.9437 129.857 85.5219 129.977C85.1 130.096 84.6391 130.156 84.1391 130.156C83.5661 130.156 83.0557 130.081 82.6078 129.93C82.1599 129.773 81.7823 129.568 81.475 129.312C81.1625 129.062 80.9229 128.771 80.7562 128.438C80.5948 128.104 80.5141 127.758 80.5141 127.398H81.9594C81.9802 127.695 82.0583 127.945 82.1937 128.148C82.3344 128.352 82.5089 128.516 82.7172 128.641C82.9203 128.766 83.1469 128.854 83.3969 128.906C83.6469 128.958 83.8943 128.984 84.1391 128.984C84.5245 128.984 84.8604 128.94 85.1469 128.852C85.4333 128.758 85.6573 128.63 85.8187 128.469C85.9177 128.37 85.9932 128.26 86.0453 128.141C86.0974 128.021 86.1234 127.893 86.1234 127.758ZM95.2528 127.758C95.2528 127.586 95.219 127.432 95.1512 127.297C95.0835 127.156 94.969 127.029 94.8075 126.914C94.646 126.799 94.4325 126.695 94.1669 126.602C93.9012 126.503 93.5705 126.414 93.1747 126.336C92.6903 126.237 92.2476 126.117 91.8466 125.977C91.4507 125.836 91.1122 125.667 90.8309 125.469C90.5445 125.276 90.3231 125.049 90.1669 124.789C90.0106 124.523 89.9325 124.216 89.9325 123.867C89.9325 123.523 90.0132 123.203 90.1747 122.906C90.3361 122.604 90.5627 122.341 90.8544 122.117C91.146 121.893 91.4924 121.716 91.8934 121.586C92.2997 121.456 92.745 121.391 93.2294 121.391C93.7502 121.391 94.219 121.458 94.6356 121.594C95.0523 121.729 95.4065 121.917 95.6981 122.156C95.9898 122.396 96.2137 122.677 96.37 123C96.5315 123.318 96.6122 123.661 96.6122 124.031H95.1669C95.1669 123.849 95.12 123.672 95.0262 123.5C94.9325 123.323 94.8023 123.167 94.6356 123.031C94.469 122.896 94.2658 122.786 94.0262 122.703C93.7919 122.62 93.5262 122.578 93.2294 122.578C92.9221 122.578 92.6512 122.612 92.4169 122.68C92.1877 122.747 91.9976 122.839 91.8466 122.953C91.6903 123.068 91.5731 123.201 91.495 123.352C91.4169 123.503 91.3778 123.659 91.3778 123.82C91.3778 123.987 91.4091 124.135 91.4716 124.266C91.5341 124.396 91.6434 124.513 91.7997 124.617C91.9507 124.721 92.1539 124.815 92.4091 124.898C92.6695 124.982 92.9976 125.062 93.3934 125.141C93.9143 125.25 94.3804 125.378 94.7919 125.523C95.2033 125.664 95.5497 125.833 95.8309 126.031C96.1122 126.234 96.3257 126.469 96.4716 126.734C96.6226 127 96.6981 127.307 96.6981 127.656C96.6981 128.031 96.6122 128.372 96.4403 128.68C96.2736 128.987 96.0393 129.25 95.7372 129.469C95.4351 129.688 95.0731 129.857 94.6512 129.977C94.2294 130.096 93.7684 130.156 93.2684 130.156C92.6955 130.156 92.1851 130.081 91.7372 129.93C91.2893 129.773 90.9117 129.568 90.6044 129.312C90.2919 129.062 90.0523 128.771 89.8856 128.438C89.7242 128.104 89.6434 127.758 89.6434 127.398H91.0887C91.1096 127.695 91.1877 127.945 91.3231 128.148C91.4637 128.352 91.6382 128.516 91.8466 128.641C92.0497 128.766 92.2762 128.854 92.5262 128.906C92.7762 128.958 93.0236 128.984 93.2684 128.984C93.6539 128.984 93.9898 128.94 94.2762 128.852C94.5627 128.758 94.7867 128.63 94.9481 128.469C95.0471 128.37 95.1226 128.26 95.1747 128.141C95.2268 128.021 95.2528 127.893 95.2528 127.758Z" fill="#6B6B6B"/>
<rect x="142" width="132" height="100" rx="12" fill="#BB362A"/>
<path d="M192.117 124.742H187.367V128.773H192.906V130H185.922V118.625H192.836V119.859H187.367V123.516H192.117V124.742ZM200.528 121.391C200.793 121.391 201.069 121.409 201.356 121.445C201.648 121.482 201.866 121.531 202.012 121.594L201.817 123.008C201.536 122.945 201.267 122.901 201.012 122.875C200.762 122.844 200.499 122.828 200.223 122.828C199.869 122.828 199.549 122.872 199.262 122.961C198.976 123.044 198.726 123.169 198.512 123.336C198.319 123.482 198.15 123.661 198.004 123.875C197.864 124.083 197.747 124.318 197.653 124.578V130H196.2V121.547H197.575L197.637 122.68L197.645 122.891C197.989 122.427 198.4 122.062 198.879 121.797C199.364 121.526 199.913 121.391 200.528 121.391ZM209.657 121.391C209.923 121.391 210.199 121.409 210.485 121.445C210.777 121.482 210.996 121.531 211.142 121.594L210.946 123.008C210.665 122.945 210.397 122.901 210.142 122.875C209.892 122.844 209.629 122.828 209.353 122.828C208.998 122.828 208.678 122.872 208.392 122.961C208.105 123.044 207.855 123.169 207.642 123.336C207.449 123.482 207.28 123.661 207.134 123.875C206.993 124.083 206.876 124.318 206.782 124.578V130H205.329V121.547H206.704L206.767 122.68L206.774 122.891C207.118 122.427 207.53 122.062 208.009 121.797C208.493 121.526 209.043 121.391 209.657 121.391ZM212.841 125.695C212.841 125.086 212.93 124.521 213.107 124C213.284 123.474 213.539 123.018 213.872 122.633C214.201 122.247 214.602 121.945 215.076 121.727C215.55 121.503 216.083 121.391 216.677 121.391C217.276 121.391 217.813 121.503 218.287 121.727C218.766 121.945 219.172 122.247 219.505 122.633C219.833 123.018 220.086 123.474 220.263 124C220.44 124.521 220.529 125.086 220.529 125.695V125.867C220.529 126.477 220.44 127.042 220.263 127.562C220.086 128.083 219.833 128.536 219.505 128.922C219.172 129.307 218.768 129.609 218.294 129.828C217.82 130.047 217.287 130.156 216.693 130.156C216.094 130.156 215.555 130.047 215.076 129.828C214.602 129.609 214.201 129.307 213.872 128.922C213.539 128.536 213.284 128.083 213.107 127.562C212.93 127.042 212.841 126.477 212.841 125.867V125.695ZM214.287 125.867C214.287 126.284 214.336 126.682 214.435 127.062C214.534 127.438 214.685 127.768 214.888 128.055C215.086 128.341 215.336 128.568 215.638 128.734C215.94 128.901 216.292 128.984 216.693 128.984C217.089 128.984 217.435 128.901 217.732 128.734C218.034 128.568 218.287 128.341 218.49 128.055C218.688 127.768 218.836 127.438 218.935 127.062C219.034 126.682 219.083 126.284 219.083 125.867V125.695C219.083 125.284 219.031 124.891 218.927 124.516C218.828 124.135 218.68 123.802 218.482 123.516C218.279 123.229 218.026 123.003 217.724 122.836C217.427 122.664 217.078 122.578 216.677 122.578C216.276 122.578 215.927 122.664 215.63 122.836C215.333 123.003 215.086 123.229 214.888 123.516C214.685 123.802 214.534 124.135 214.435 124.516C214.336 124.891 214.287 125.284 214.287 125.695V125.867ZM227.916 121.391C228.182 121.391 228.458 121.409 228.744 121.445C229.036 121.482 229.254 121.531 229.4 121.594L229.205 123.008C228.924 122.945 228.656 122.901 228.4 122.875C228.15 122.844 227.887 122.828 227.611 122.828C227.257 122.828 226.937 122.872 226.65 122.961C226.364 123.044 226.114 123.169 225.9 123.336C225.708 123.482 225.538 123.661 225.393 123.875C225.252 124.083 225.135 124.318 225.041 124.578V130H223.588V121.547H224.963L225.025 122.68L225.033 122.891C225.377 122.427 225.788 122.062 226.268 121.797C226.752 121.526 227.301 121.391 227.916 121.391Z" fill="#6B6B6B"/>
</svg>

<svg xmlns="http://www.w3.org/2000/svg" width="274" height="132" fill="none"><rect width="132" height="100" fill="#2A8642" rx="12"/><path fill="#6B6B6B" d="M40.813 127.125q0-.523-.243-.883a2.1 2.1 0 0 0-.61-.609 4 4 0 0 0-.827-.406 20 20 0 0 0-.86-.297q-.601-.196-1.226-.469a5.8 5.8 0 0 1-1.125-.672 3.5 3.5 0 0 1-.844-.937q-.32-.547-.32-1.282 0-.734.32-1.312.328-.579.852-.977a3.8 3.8 0 0 1 1.187-.601 4.4 4.4 0 0 1 1.336-.211q.742 0 1.43.25.687.242 1.219.687.531.445.851 1.078.321.634.336 1.414h-1.484a3.1 3.1 0 0 0-.242-.89 2.2 2.2 0 0 0-.477-.696 2 2 0 0 0-.711-.445 2.5 2.5 0 0 0-.922-.164 3 3 0 0 0-.812.117q-.39.118-.696.352a1.8 1.8 0 0 0-.5.578q-.18.344-.18.797.01.492.25.836.243.336.618.57.367.234.797.391.437.156.82.273.633.195 1.266.477.633.273 1.156.703.516.398.828.976.32.579.32 1.336 0 .766-.343 1.336a3 3 0 0 1-.875.946 4 4 0 0 1-1.22.578 5 5 0 0 1-1.359.187 4.9 4.9 0 0 1-1.601-.273 4 4 0 0 1-1.36-.789 3.4 3.4 0 0 1-.82-1.039 3.2 3.2 0 0 1-.32-1.336h1.476q.07.531.29.945.218.406.562.688.344.288.79.437.453.141.983.141.423 0 .829-.102a2.3 2.3 0 0 0 .734-.336q.32-.22.523-.554.204-.344.203-.813M49.559 130l-.086-1.164a3.04 3.04 0 0 1-1.055.976q-.632.344-1.46.344-.664 0-1.204-.203a2.35 2.35 0 0 1-.921-.648q-.384-.438-.594-1.11-.204-.679-.203-1.625v-5.023h1.445v5.039q0 .687.11 1.141.109.453.327.718.219.274.532.383.32.11.734.11.485 0 .867-.11.383-.117.664-.32.235-.165.407-.391.18-.234.296-.508v-6.062h1.454V130zm7.16-1.016q.392 0 .758-.125.375-.124.665-.351.288-.219.46-.516a1.33 1.33 0 0 0 .188-.656h1.367a2.24 2.24 0 0 1-.297 1.078 3 3 0 0 1-.758.891q-.476.39-1.093.625a3.7 3.7 0 0 1-1.29.226q-.96 0-1.679-.344a3.4 3.4 0 0 1-1.195-.929 3.9 3.9 0 0 1-.727-1.336 5.3 5.3 0 0 1-.242-1.609v-.329q0-.836.242-1.601.243-.766.727-1.352a3.5 3.5 0 0 1 1.195-.922q.72-.343 1.68-.343.75 0 1.375.242.633.235 1.093.64.454.414.711.977.258.563.258 1.203H58.79a1.7 1.7 0 0 0-.172-.719 1.9 1.9 0 0 0-.43-.601 2 2 0 0 0-.656-.406 2.2 2.2 0 0 0-.812-.149q-.672 0-1.133.274a2.2 2.2 0 0 0-.735.695 3.1 3.1 0 0 0-.406.976q-.117.54-.117 1.086v.329q0 .554.117 1.101.126.538.407.969.273.436.726.711.461.265 1.14.265m9.13 0q.39 0 .758-.125.375-.124.664-.351.29-.219.46-.516a1.33 1.33 0 0 0 .188-.656h1.368a2.24 2.24 0 0 1-.297 1.078 3 3 0 0 1-.758.891q-.477.39-1.094.625a3.7 3.7 0 0 1-1.289.226q-.96 0-1.68-.344a3.4 3.4 0 0 1-1.195-.929 3.9 3.9 0 0 1-.726-1.336 5.3 5.3 0 0 1-.243-1.609v-.329q0-.836.242-1.601.243-.766.727-1.352a3.5 3.5 0 0 1 1.195-.922q.72-.343 1.68-.343.75 0 1.375.242.632.235 1.094.64.453.414.71.977.26.563.259 1.203h-1.368a1.7 1.7 0 0 0-.171-.719 1.9 1.9 0 0 0-.43-.601 2 2 0 0 0-.656-.406 2.2 2.2 0 0 0-.813-.149q-.672 0-1.133.274a2.2 2.2 0 0 0-.734.695 3.1 3.1 0 0 0-.406.976q-.118.54-.118 1.086v.329q0 .554.118 1.101.124.538.406.969.273.436.726.711.462.265 1.141.265m9.262 1.172q-.89 0-1.64-.304a3.7 3.7 0 0 1-1.274-.852 3.9 3.9 0 0 1-.828-1.297 4.4 4.4 0 0 1-.297-1.633v-.328q0-1.023.328-1.828a4.2 4.2 0 0 1 .875-1.375q.54-.555 1.227-.851a3.6 3.6 0 0 1 1.422-.297q.914 0 1.593.32.688.312 1.141.867.453.563.672 1.32.227.759.227 1.641v.649h-6.04v.054q.056.618.243 1.086.195.47.53.828.345.383.83.602.483.219 1.07.219.773 0 1.374-.313a3 3 0 0 0 1-.828l.883.687q-.422.642-1.265 1.141-.837.492-2.07.492m-.187-7.578q-.438 0-.828.164-.39.156-.704.461a2.8 2.8 0 0 0-.53.766q-.211.445-.298 1.031h4.547v-.07q0-.391-.148-.836a2.4 2.4 0 0 0-.414-.782 2 2 0 0 0-.672-.531q-.4-.203-.953-.203m11.2 5.18q0-.258-.102-.461a1 1 0 0 0-.344-.383 2.6 2.6 0 0 0-.64-.312 6.5 6.5 0 0 0-.993-.266 10 10 0 0 1-1.328-.359 4.2 4.2 0 0 1-1.015-.508 2.2 2.2 0 0 1-.665-.68 1.8 1.8 0 0 1-.234-.922q0-.516.242-.961.243-.453.68-.789a3.4 3.4 0 0 1 1.04-.531q.608-.195 1.335-.195.781 0 1.406.203t1.063.562q.436.36.672.844.242.477.242 1.031h-1.446q0-.273-.14-.531a1.5 1.5 0 0 0-.39-.469 2 2 0 0 0-.61-.328 2.4 2.4 0 0 0-.797-.125q-.46 0-.812.102-.345.101-.57.273a1.16 1.16 0 0 0-.352.399 1 1 0 0 0-.118.468q0 .25.094.446.094.195.328.351.227.156.61.281.39.125.984.243.78.164 1.398.382.618.211 1.04.508.42.305.64.703.227.399.227.922 0 .562-.258 1.024a2.36 2.36 0 0 1-.703.789 3.4 3.4 0 0 1-1.086.508 5 5 0 0 1-1.383.179 4.8 4.8 0 0 1-1.531-.226 3.6 3.6 0 0 1-1.133-.618 2.6 2.6 0 0 1-.719-.874 2.36 2.36 0 0 1-.242-1.04h1.445q.032.445.235.75.21.306.523.493.305.187.68.265t.742.078q.578 0 1.008-.132.429-.141.672-.383a1.1 1.1 0 0 0 .226-.328 1 1 0 0 0 .078-.383m9.129 0q0-.258-.102-.461a1 1 0 0 0-.343-.383 2.6 2.6 0 0 0-.641-.312 6.5 6.5 0 0 0-.992-.266 10 10 0 0 1-1.328-.359 4.2 4.2 0 0 1-1.016-.508 2.2 2.2 0 0 1-.664-.68 1.8 1.8 0 0 1-.234-.922q0-.516.242-.961.242-.453.68-.789a3.4 3.4 0 0 1 1.038-.531q.61-.195 1.336-.195.781 0 1.407.203.624.203 1.062.562t.672.844q.242.477.242 1.031h-1.445q0-.273-.14-.531a1.5 1.5 0 0 0-.391-.469 2 2 0 0 0-.61-.328 2.4 2.4 0 0 0-.797-.125q-.46 0-.812.102-.345.101-.57.273a1.16 1.16 0 0 0-.352.399 1 1 0 0 0-.117.468q0 .25.094.446.093.195.328.351.226.156.61.281.39.125.983.243.781.164 1.399.382.617.211 1.039.508.422.305.64.703.227.399.227.922 0 .562-.258 1.024-.249.46-.703.789a3.4 3.4 0 0 1-1.086.508 5 5 0 0 1-1.383.179 4.8 4.8 0 0 1-1.53-.226 3.6 3.6 0 0 1-1.134-.618 2.6 2.6 0 0 1-.718-.874 2.36 2.36 0 0 1-.243-1.04h1.446q.03.445.234.75.21.306.524.493a2.1 2.1 0 0 0 .68.265q.375.078.741.078.579 0 1.008-.132.43-.141.672-.383a1.1 1.1 0 0 0 .227-.328 1 1 0 0 0 .078-.383"/><rect width="132" height="100" x="142" fill="#BB362A" rx="12"/><path fill="#6B6B6B" d="M192.117 124.742h-4.75v4.031h5.539V130h-6.984v-11.375h6.914v1.234h-5.469v3.657h4.75zm8.411-3.351q.397 0 .828.054.438.055.656.149l-.195 1.414a7 7 0 0 0-.805-.133 6 6 0 0 0-.789-.047q-.53 0-.961.133a2.28 2.28 0 0 0-1.258.914q-.21.313-.351.703V130H196.2v-8.453h1.375l.062 1.133.008.211a3.85 3.85 0 0 1 1.234-1.094q.727-.406 1.649-.406m9.129 0q.399 0 .828.054.438.055.657.149l-.196 1.414a7 7 0 0 0-.804-.133 6 6 0 0 0-.789-.047q-.532 0-.961.133a2.28 2.28 0 0 0-1.258.914 3.2 3.2 0 0 0-.352.703V130h-1.453v-8.453h1.375l.063 1.133.007.211a3.85 3.85 0 0 1 1.235-1.094q.727-.406 1.648-.406m3.184 4.304q0-.913.266-1.695.266-.79.765-1.367a3.5 3.5 0 0 1 1.204-.906 3.7 3.7 0 0 1 1.601-.336q.899 0 1.61.336.718.327 1.218.906.492.578.758 1.367.266.781.266 1.695v.172q0 .915-.266 1.695-.266.781-.758 1.36a3.55 3.55 0 0 1-1.211.906 3.8 3.8 0 0 1-1.601.328 3.85 3.85 0 0 1-1.617-.328 3.5 3.5 0 0 1-1.204-.906 4 4 0 0 1-.765-1.36 5.2 5.2 0 0 1-.266-1.695zm1.446.172q0 .625.148 1.195.149.563.453.993.297.43.75.679t1.055.25q.594 0 1.039-.25a2.25 2.25 0 0 0 .758-.679q.297-.43.445-.993a4.7 4.7 0 0 0 .148-1.195v-.172q0-.617-.156-1.179a3.1 3.1 0 0 0-.445-1 2.25 2.25 0 0 0-.758-.68 2.05 2.05 0 0 0-1.047-.258q-.602 0-1.047.258a2.2 2.2 0 0 0-.742.68 3 3 0 0 0-.453 1 4.6 4.6 0 0 0-.148 1.179zm13.629-4.476q.399 0 .828.054.437.055.656.149l-.195 1.414a7 7 0 0 0-.805-.133 6 6 0 0 0-.789-.047q-.53 0-.961.133a2.2 2.2 0 0 0-.75.375 2.3 2.3 0 0 0-.507.539 3.2 3.2 0 0 0-.352.703V130h-1.453v-8.453h1.375l.062 1.133.008.211a3.8 3.8 0 0 1 1.235-1.094q.726-.406 1.648-.406"/></svg>
